X:1
T:In February
T:In January
T:In February
T:In March
T:In April
T:In May
T:In June
T:In July
T:In August
T:In September
T:In October
T:In November
T:In December
T:by IMSLP - Creative Commons copyright waiver
T:by IMSLP - Creative Commons copyright waiver
T:by IMSLP - Creative Commons copyright waiver
T:by IMSLP - Creative Commons copyright waiver
T:by IMSLP - Creative Commons copyright waiver
T:by IMSLP - Creative Commons copyright waiver
T:by IMSLP - Creative Commons copyright waiver
T:by IMSLP - Creative Commons copyright waiver
T:by IMSLP - Creative Commons copyright waiver
T:by IMSLP - Creative Commons copyright waiver
T:by IMSLP - Creative Commons copyright waiver
T:by IMSLP - Creative Commons copyright waiver
T:by IMSLP - Creative Commons copyright waiver
T:by IMSLP - Creative Commons copyright waiver
T:by IMSLP - Creative Commons copyright waiver
T:by IMSLP - Creative Commons copyright waiver
T:by IMSLP - Creative Commons copyright waiver
T:by IMSLP - Creative Commons copyright waiver
T:by IMSLP - Creative Commons copyright waiver
T:by IMSLP - Creative Commons copyright waiver
T:by IMSLP - Creative Commons copyright waiver
T:by IMSLP - Creative Commons copyright waiver
C:George Whitefield Chadwic
Z:by IMSLP - Creative Commons copyright waiver
%%score ( 1 2 ) { ( 3 4 ) | ( 5 6 7 ) }
L:1/8
Q:1/4=80
M:6/8
K:C
V:1 treble nm="Voice"
V:2 treble 
V:3 treble nm="Piano"
V:4 treble 
V:5 bass 
V:6 bass 
V:7 bass 
V:1
"_Con moto." z6 | z2 z z2!p! G | Gc A B2 G | GA E G3 | E3/2 F/ E DC D | E F G D2 G | G c A B2 F | %7
w: |The|snow _ flakes float down|from * the skies|Hush a by ba- * by|hush a by- by Tis|bed time at seven and|
w: |The|clou _ dies have hid|the * dky blue|Rock a by ba- * by|rock a by- by So|wink a wink wink So|
w: |||||||
 E A ^F G3 | B3/2 G/ B A^F A | G3- G c B | A G E D C D | E G2- G3 | B3/2 G/ B A^F A | G3- G2 z :| %14
w: no blue in Heaven|Hush a by ba- * by|by * Still I|see the soft blue of your|e\- yes *|Hush a by ba- * by|by *|
w: blink a blink blink|Rock a By ba- * by|by * And the|heaven of your eyes is hid|too _ _|Rock a By ba- * by|by *|
w: |||||||
[M:9/8][Q:1/4=100]"_Allegretto." z9 | z2 z z2 z z2 D |: F G D F G _B d3- | d6- d z D | %18
w: |The|snow\- birds that chirped in the sun|* * Have|
w: ||now these quick fin\- gers and thumbs|* * That|
w: ||||
 G A _E G A c _e3- | e6- e z F | F _B d f _e d c2 F | F _B c d c B A3 | GzG _E3 F2 F |1 %23
w: fold\- ed their wings ecì ry one|* * Tucked|un\- der their wings their wee heads and|snug\- gled them down in their beds|In their beds of white|
w: tossed to the bird\- ies the crumbs|* * And|trot\- feet that trot\- ted all day Grow|stikk and I tuck him a\- way|In his bed white as|
w: |||||
 D3- D z z z z D :|2 D6 |][K:Bb][M:4/4][Q:1/4=120]"^Allegro." G2 z D G2 z D | G2 A2 B2 c2 | %27
w: snow * And|snow.|Hark and hear the|March wind blow\- ing|
w: ||From the South the|March wind blow\- ing|
w: ||||
 d2 B2 A4 |!pp! d2"^rit." B2 A4 |"^a tempo" G3 D G3 D | G2 A2 B2 c2 | d2 B2 A4 | %32
w: Blow\- ing high|Blow\- ing low|Like a wind\- ing|riv\- er flow\- ing|Flow\- ing swift|
w: Blow\- ing high|Blow\- ing low|To the froz\- en|North is flow\- ing|Flow\- ing swift|
w: |||||
!pp!"^rit." d2 B2 A4 | d3 d c3 d | B3 B A2 D2 | G2 A2 B2 c2 | B2 G2 B4- | B4 A4 | G8- | G2 z2 z4 | %40
w: Flow\- ing slow|For my dear, This|tree top swing\- er|Is to us a|good time bring\-|_ _|er|_|
w: Flow\- ing slow|For my dear, This|win\- dy wing\- er|Is to us the|Sum\- mer bring\-|_ _|er|_|
w: ||||||||
 z8 :|[K:G][M:2/4]!p![Q:1/4=70]"^Con moto" D3/2 G/ B3/2 A/ | G F E D | D2 D2 | D E E D | %45
w: |On the roof the|rain is drop\- ping,|drop\- ping|Drip, drip, drop\- ping|
w: |Now the birds be\-|gin to twit\- ter|twit\- ter|Tweet, tweet twit\- ter|
w: |||||
 G3/2 B/ d3/2 B/ | G E E D | D2 D2 | D D E D | B B c B | A G A2 | d B A G | A4 | B B c B | A G E2 | %55
w: Like a thou\- sand|bird\- ies hop\- ping|hop\- ping.|Hip, hip, hop\- ping.|By and by the|sun will shine,|shine so ve\- ry|clear.|Make a rain\- bow|ve\- ry fine,|
w: In the sun the|rain drops glit\- ter|glit\- ter.|Glint, glint glit\- ter|Ba\- by's tears are|A\- pril showers,|drop\- ping from blue|eyes.|And his smile makes|sun\- ny huors,|
w: ||||||||||
 D G G F | G4 :|[K:A][M:2/4][Q:1/4=100]"_Allegretto." z2 | z4 | z2 z!p! E |:!<(! E A A!<)! B | %61
w: For my ba\- by|dear.|||This|sweet May day my|
w: In his mam\- ma's|skies.||||birds and babes so|
w: ||||||
 (c e2) E | E A!<(! A B!<)! | (c e2) e | f3/2 e/ c c | d c A E | F E A E | F G A z/ B/ | %68
w: de\- ar, I|hear a bird sing|cle\- ar, The|song is brought up\-|on the breeze thro'|pink white bloom of|ap\- ple trees, Oh!|
w: de\- ar, I|bring the sun\- days|ne\- ar, And|ev\- ery\- where I|sing my song the|bud\- ding flowers to|hear me throng And|
w: |||||||
"_glad"{c} c4- | c3 G | cc c2- | c3 c | f e c B | c A F E | F2 B2 | B3 c | f e c B | c A F E | F4 | %79
w: hark|_ The|blue\- bird sings|_ I|bring up\- on my|a\- zure wing the|Spring, the|Spring I|bring up\- on my|a\- zure wing the|Spring,|
w: |* be\-|cause I bring|_ I|bring up\- on my|a\- zure wing the|Spring, the|Spring I|bring up\- on my|A\- zure wing the|Spring,|
w: |||||||||||
 B4 | A4 | z4 |1 z2 z E :|2 z4 | z4 ||[K:C][M:3/4][Q:1/4=80]"^Moderato." E3/2 F/ | G c e2 d e | %87
w: the|Spring.||For|||O the|red rose tree has a|
w: the|Spring.|||||In the|still rose tree sleeps the|
w: ||||||||
 c3/2 A/ A2 c2 | G3/2 E/ E2 D2 | E4 CD | (3E G c e2 d e | c3/2 A/ A2 c2 | G3/2 E/ E2 D2 | E4 E A | %94
w: bud, my dear, so|sweet, so sweet, so|sweet, Thy *|mo\- ther a babe to her|heart folds near So|sweet, so sweet, so|sweet, and the|
w: bud all night my|sweet, my sweet, my|sweet, So *|sleep in my heart while the|stars shine bright My|sweet, my sweet, my|sweet, O the|
w: |||||||
 GD G2 DA | G4 G c | B ^F B2!mf! F c | B4!<(! c d!<)! | e2"^rit:"[Q:1/4=70] c!f! G (3E D E | C4 :| %100
w: bud shall blow to a|rose, and the|babe shall grow O who|knows to what|won\- der my ba\- by may|grow.|
w: bud shall blow to a|rose, and the|||||
w: ||||||
[K:E][M:4/4][Q:1/4=120]"_Molto espressivo." z8 | z8 | z4 z2 z!pp! E |: G2 G G B B z B | %104
w: ||If|I were a li\- ly a|
w: |||now I'm a li\- ly thine|
w: ||||
 E2 E E G G z G |!<(! C2 D D E2 A A!<)! |!mp! F6 (F>d) | !>!d2 c B !>!d2 c B | f4 d2 z F | %109
w: white wa\- ter li\- ly and|you were my sweet yel\- low|heart my *|pet\- als of snow should en\-|fold you Till|
w: own mo\- ther li\- ly and|you are my gol\- den sweet|heart my *|arms and my love both en\-|fold you Till|
w: |||||
 B2 ^A G B2 A!pp! G | B2 =A G c2 A G | G4 F2 A2 | G4 E2 F2 | G6 z2 | z8 |1 z4 z2 z E :|2 z8 || %117
w: none but the sun and the|stars in the blue could be\-|hold your so|shel- tered a\-|part.||Dream||
w: none but the Son and the|Fa\- ther in heaven can be|hold you so|shel- tered thou|art.||||
w: ||||||||
[K:Eb][M:3/4]!f![Q:1/4=125]"^Tempo di Menuetto." E G | B2 B2 B2 | (B2 AG) (FE) | G2 E2 F2 | %121
w: In the|ham\- mok we|swing _ _ my *|ba\- by and|
w: So the|o\- ri\- ole|swings * * her *|bird\- ies on|
w: ||||
 E4!p! E F | G2 E2 F2 | G4 F F | G2 F2 G2 | B4 G =A | B2 G2 =A2 | B4 G =A | B2 G2 B2 | d4 d2 | %130
w: I like two|birds in the|sky swing\- ing|low swing\- ing|hight and I|sing as we|swing like a|lark on the|wing sing|
w: hiht In their|light ham\- mok|nest swing\- ing|east swing\- ing|west and the|o\- ri\- ole|sings with a|flut\- ter of|wings sings|
w: |||||||||
!f! f3 e c2 | B2 G2 F2 | G2 E2 F2 | G2 C2 B,2 | C6 | F4 G2 | E6- | E2 z2 z2 :| %138
w: lul\- la\- by|ba\- by sing|lul\- la\- by|ba\- by sing|O-|lul\- la\-|by|_|
w: lul\- la\- ny|bird\- ies sings|lul\- la\- by|bird\- ies sings|O-|lul\- la\-|by|_|
w: ||||||||
[K:C][M:4/4][Q:1/4=65]"^Lento." G2 | c4 A4 | G6 G2 | c4 A2 B2 | %142
w: O|Moon, round|Moon, round|Har\- vest _|
w: O|Moon, full|Moon, full|Har\- vest _|
w: ||||
 !fermata!G6[Q:1/4=120]"^Allegro." CF | E2 c2 G3 F | E G D E C3 D | E G D E C2 !>!c2 | %146
w: Moon, One _|twi\- light time a|slen\- der sil\- ver boat, through|all the am\- ber sky we|
w: Moon, To\- _|night a\- long the|star\- ry a\- zure track, with|hap\- py hearts we see you|
w: ||||
 !>!B2 !>!A2 d3 c | B2 AG A2 B2 | G6 E2 | D3 F E3 G | (FE) (DE) F3 G | E3 G F3 A | GF EF G3 G | %153
w: saw you float, my|ba\- by * boy and|I And|with you went the|eve- * ning * star as|down the west you|sail'd * in- * quest of|
w: sail\- ing back, my|ba\- by * boy and|I And|big are ba\- by's|won- * der * eyes, as|in the east with|light * in- * creased from|
w: |||||||
 AGA B c2 C2 | E4 D4 | C8 :|[K:G][M:4/4][Q:1/4=80]"^Moderato." G2 G2 c3 B | A2 B2 G2 D2 | %158
w: fair _ _ y land where|bright things|are.|Throught the day thr|Heaven\- ly Fath\- er|
w: fair _ _ y land we|see you|rise.|Slum\- ber on my|dream\- ing ba\- by|
w: |||||
 E2 F2 G2 A2 | B3 A A4 | B2 B2 c3 B | A2 B2 G2 E2 | G2 F2 E2 FG | F2 E2 D4 | d2 d2 e3 d | %165
w: He that notes a|spar\- row's fall|From un\- num\- bered|un\- know dan\- gers,|Safe\- ly guards the *|chik\- dren all|So, throught all the|
w: And thr Heaven\- ly|ang\- el band|Throught the smi\- ing|dream land mead\- ows,|Safe shall lead thee *|by the hand|So, throught all the|
w: |||||||
 c2 B2 d2 c2 | c2 B2 A2 ^G2 | A8 | A2 A2 d3 c | B2 F2 A2 G2 | D2 E2 F2 G2 | B3 A G4 :| %172
w: still dark nigh time,|Throught the stars burn|dim|Sure as in the|sun\- ny light rime|Is the cease\- less|care of him.|
w: still dark night time,|Be thou here or|there|Sure as in the|sun\- ny light time|Is the Heaven\- ly|Fath\- er's care.|
w: |||||||
[K:F][M:9/8][Q:1/4=90]"_Andantino." z |: z9 | A2 ^G A3- A2 d | =c2 B B6 | A2 ^G A3- A2 B | %177
w: ||Sum\- mer birds _ have|tak\- en wings,|Nev\- er one _ is|
w: ||Ba\- by shall _ not|miss the birds,|There shall be _ in|
w: |||||
 A2 G G3- G2 A | D2 ^C D2 E F2 B | A3 G6 | c2 =B c3- c2 f | e2 d d6 | c2 =B c3- c2 d | %183
w: left to sing _ a|bye O bye O song for|ba\- by|On\- ly in _ the|si\- lent dark|we can gear _ if|
w: sweet\- est words, _ a|bye O bye O song for|ba\- by|Ev\- er in _ the|si\- lent dark|ma\- ma'll be _ a|
w: ||||||
 B2 G G3- G2 A | F2 E F3 G3 | A3 A6 | z9 || %187
w: we but hark _ a|crick\- et sing\- ing|may be||
w: sing\- ing lark _ a|pip\- ing rob\- in|may be||
w: ||||
[K:D][M:6/8][Q:1/4=80]"^Più lento." (A/>B/A) E A/>B/A F | A/ A/ B c d2 f | A/>B/A E A/>B/A F | %190
w: Sing\- _ _ ing shrill\- ing * *|All the dark\- ness fill\- ing|with * * its mer\- * * ry|
w: Sing\- _ _ ing thrill\- ing * *|All the dark\- ness fill\- ing|with * * its mer\- * * ry|
w: |||
 A/>B/A/>B/A/>B/ (A e2) |1 d d2 z2 z :|2 d d2 z2 z |][K:F][M:4/4][Q:1/4=80]"^Moderato." c2 | %194
w: trill\- * * * * * ing *|trill\- ing||Long|
w: trill\- * * * * * ing *|trill\- ing|trill\- ing|Long|
w: ||trill\- ing||
 d3 c A2 A A | c2 BA G2 A2 | F2 DE F2 B2 | A2 G4 c2 | d3 c A2 A A | c2 BA G2 A2 | F3 E D2 E2 | %201
w: years a\- go in the|east\- ern * Heaven for|shep\- herds * watch\- ing|un\- der Be\-|yond the glo\- ry of|all the * stars shone|out the star of|
w: years a\- go from the|east\- ern * Heaven the|shep\- herds * list\- ning|un\- der Heard|an\- gels sing\- ing a|stange new * song the|great aweet song of|
w: |||||||
 D2 C4 c2 | d3 e f2 e2 | d2 A2 B2 B2 | B3/2 c/ d3/2 _e/ d2 c2 | d6 d2 | G3 B B2 d2 | c2 A2 F2 C2 | %208
w: won\- der Bright|star for you brigth|star for thrm the|ra\- diant star of Beth\- le\-|hem For|in the ha\- lo|of its light the|
w: won\- der of|peace on earth to|men good will the|song the world is sing\- ing|still For|in the song and|graet star\- light the|
w: |||||||
 D2 C2 F2 C2 | D2 E2 F2 B2 | A2 GF G3 F | F8 :| %212
w: dear Christ child was|born that night that|glad first * Christ\- mas|night.|
w: dear Christ child was|born that night that|glad first * Chtist\- mas|night.|
w: ||||
V:2
 x6 | x6 | x6 | x6 | x6 | x6 | x6 | x6 | x6 | x6 | x6 | x6 | x6 | x6 :|[M:9/8] x9 | x9 |: %16
w: ||||||||||||||||
w: ||||||||||||||||
 x8 F/ F/ | G z F/ F/ G z D/ D/ G z x | x8 G/ G/ | A z G/ G/ A z G/ G/ F z x | x9 | x9 | x9 |1 %23
w: Chich a|dee chick a dee chick a dee|Chick a|ree chick a ree chick a ree||||
w: Chich a|dee chick a dee chick a dee|Chick a|ree chick a ree chick a ree||||
 x9 :|2 x6 |][K:Bb][M:4/4] x8 | x8 | x8 | x8 | x8 | x8 | x8 | x8 | x8 | x8 | x8 | x8 | x8 | x8 | %39
w: ||||||||||||||||
w: ||||||||||||||||
 x8 | x8 :|[K:G][M:2/4] x4 | x4 | x4 | x4 | x4 | x4 | x4 | x4 | x4 | x4 | x4 | x4 | x4 | x4 | x4 | %56
w: |||||||||||||||||
w: |||||||||||||||||
 x4 :|[K:A][M:2/4] x2 | x4 | x4 |: x4 | x4 | x4 | x4 | x4 | x4 | x4 | x4 | %68
w: ||||||||||||
w: ||||||||||||
 x"_am" c"_I_____________" c2- | x4 | x4 | x4 | x4 | x4 | x4 | x4 | x4 | x4 | x4 | x4 | x4 | x4 |1 %82
w: ||||||||||||||
w: ||||||||||||||
 x4 :|2 x4 | x4 ||[K:C][M:3/4] x2 | x6 | x6 | x6 | x6 | x6 | x6 | x6 | x6 | x6 | x6 | x6 | x6 | %98
w: ||||||||||||||||
w: ||||||||||||||||
 x6 | x4 :|[K:E][M:4/4] x8 | x8 | x8 |: x8 | x8 | x8 | x8 | x8 | x8 | x8 | x8 | x8 | x8 | x8 | %114
w: ||||||||||||||||
w: ||||||||||||||||
 x8 |1 x8 :|2 x8 ||[K:Eb][M:3/4] x2 | x6 | x6 | x6 | x6 | x6 | x6 | x6 | x6 | x6 | x6 | x6 | x6 | %130
w: ||||||||||||||||
w: ||||||||||||||||
 x6 | x6 | x6 | x6 | x6 | x6 | x6 | x6 :|[K:C][M:4/4] x2 | x8 | x8 | x8 | x8 | x8 | x8 | x8 | x8 | %147
w: |||||||||||||||||
w: |||||||||||||||||
 x8 | x8 | x8 | x8 | x8 | x8 | x8 | x8 | x8 :|[K:G][M:4/4] x8 | x8 | x8 | x8 | x8 | x8 | x8 | x8 | %164
w: |||||||||||||||||
w: |||||||||||||||||
 x8 | x8 | x8 | x8 | x8 | x8 | x8 | x8 :|[K:F][M:9/8] x |: x9 | x9 | x9 | x9 | x9 | x9 | x9 | x9 | %181
w: |||||||||||||||||
w: |||||||||||||||||
 x9 | x9 | x9 | x9 | x9 | x9 ||[K:D][M:6/8] x6 | x6 | x6 | x6 |1 x6 :|2 x6 |][K:F][M:4/4] x2 | x8 | %195
w: ||||||||||||||
w: ||||||||||||||
 x8 | x8 | x8 | x8 | x8 | x8 | x8 | x8 | x8 | x8 | x8 | x8 | x8 | x8 | x8 | x8 | x8 :| %212
w: |||||||||||||||||
w: |||||||||||||||||
V:3
!p! E>FE [B,D][A,C][B,D] | [CE]3 [CE]2 z |!p! [CE]2 [CE] [B,F]2 [B,F] | [CE]2 [^A,E] [B,F]3 | %4
 [G,CE]>[A,CF][CE] [B,D][A,C][B,D] | [CE][DF][EG] [B,D]2 G | [CE]2 [CE] [B,F]2 [B,F] | %7
 [CE]2 [CE^F] B,E=D | [^CG]3 ^FDF | G3 [B,G] [CE][B,CE] | [CE][CE][CE] DC[B,D] | %11
 [CE][CEG][EGc] [Gce] z z |!pp! [CE]3 [B,D][A,C][B,D] | [CE]3- [CE]3 :| %14
[M:9/8] _B2 B [_B,CG]3 [A,CA]2 [A,^CA] | [_B,D]z[B,D] [B,D]z[B,D] [B,D]z[B,D] |: %16
 [_B,D]z[B,D] [B,D]z[B,D] [B,D]z[DF] | [DG]z[DF] [DG]zD [DG]zD | [C_E]z[CE] [CE]z[CE] [CE]z[CEG] | %19
 [C_EA]z[CEG] [CEA]z[CEG] [CEA]z[CF] | [_B,F]zF [D_B][Fc][Bd] [Fc]zF | %21
 [_B,F]z[B,F] [_Bd][Ac][GB] [D^FA]3 | [DG]z[DG] [_B,_E]3 F3 |1 %23
 [_B,D]z[B,D] [B,D]z[B,D] [B,D]z[B,D] :|2 [_B,D]6 |][K:Bb][M:4/4] [B,G]2 z D [B,G]2 z D | %26
 ([B,G]2 [DA]2 [GB]2 [Ac]2 | [Bd]2 [GB]2 [DA]4) |!pp! ([bd']2 [gb]2 a4) | [B,G]3 D [B,G]3 D | %30
 ([B,G]2 [DA]2 [GB]2 [Ac]2 | [Bd]2 [GB]2 [DA]4) |!pp! ([bd']2 [gb]2 [^fa]4) | z2 [FBd]2 z2 [EAc]2 | %34
 z2 [DGB]2 z2 [C^FA]2 | G2 [^FA]2 [GB]2 [CGc]2 | [DGB]2 z2 z2 ^C2 | z4 ^F4 | [DG]2 z D [B,G]2 z d | %39
 g2 a2 b2 [fd']2 | [gg']2 z2 z4 :|[K:G][M:2/4]!p! [B,D]2 [CD]2 | [B,D]2 [CE]D | GEFD | B,2 C2 | %45
 [B,D]2 [CD]2 | [B,D]2 [CE]D | GEFD | [B,D]2 (ED) | ([G,B,D]!<(![DGB][CGc][DFB]!<)! | %50
!>(! [EA][DG])(G!>)!F) | G2 AG | FDEF | [B,G][DB][Ec][DB] | [FA][DG] E2 | [B,D][B,G][A,G][A,F] | %56
 [B,G]4 :|[K:A][M:2/4] z/!p! A/!<(!c/a/ | f/e/!<)!!>(!c/A/ F/E/C/E/!>)! | ([DF]2 [DB]) z |: %60
!p! z [A,E] E2 |!<(! z .[Ec][Ec][Ae]!<)! | z [A,E] E2 | z ([Ec][Ae]) z/ ([Ae]/ | %64
 [Af])z/([Ae]/ .[Ec])z/([CA]/ | .[DA])z/([CA]/ [Ec])z/([CE]/ | .[A,F])z/([CE]/ .[A,A])z/[CE]/ | %67
 z/ [DF]/z/[DG]/z/[DA]/z/[FB]/ | [^Ec]2 z/ (c/^e/c'/ | ^a/g/^e/c/ e2) | z2 z/ (c/^e/c'/ | %71
 ^a/g/^e/c/) ec | z/ [FA]/z/[EA]/z/[Ec]/z/[^DAB]/ | z/ [EAc]/z/[EA]/z/[FA]/z/[CE]/ | %74
 z/ (A,/D/F/) z/ (D/F/A/) | G/E/G/B/ e[Ae] | z/ [Af]/z/[Ae]/z/[Ec]/z/[^DAB]/ | %77
 z/ [EAc]/z/[EA]/z/[DF]/z/[CE]/ | z/ (E/A/d/ f/d/A/F/) | z/ (B,/D/E/ G/E/D/B,/) | C z z/ (A/c/a/ | %81
 f/e/c/A/ F/E/C/E/) |1 [DF]2 [DB] z :|2 F2 B2 | [CA] z [ca] z ||[K:C][M:3/4] C>D | %86
 (3(EGc e) z .[FB]2 | (3(EGc [EA]) z .[FB]2 | (3(EGc e) z [FBd]2 | [Ece]4 CD | (3(EGc e) z [FB]2 | %91
 (3(EGc e) z [CFA]2 | [CEG]2 [CE]2 [B,D]2 | [B,E]4 E2 | [B,F]2 [B,F]4 | [CE]A [CG]4 | %96
 [^FB]2 [FB]4 |!<(! Be B2 cd!<)! | ([Ee]2 [Gc]) z [FB]2 | [Ec]4 :| %100
[K:E][M:4/4][I:staff +1] (E,,B,,C,E, G,B,!<(![I:staff -1]CG)!<)! |!>(! (!arpeggio!G4 F3 E!>)! | %102
 (B4) G2) z2 |: !arpeggio![G,B,EG]2 z2 !arpeggio![B,EB]2 z2 | %104
 !arpeggio![CE]2 z2 !arpeggio![CG]2 z2 | %105
 !arpeggio![CEA]2!<(! !arpeggio![B,D]2 !arpeggio![B,E]2 !arpeggio![A,CFA]2!<)! | %106
 !arpeggio![DF]6 F>d | (d2 cB) d2 cB | ([DBf]4 d2) [DF]2 | %109
[I:staff +1] (3(G,,D,-G,-[I:staff -1] (3B,DG)[I:staff +1] (3(G,,D,-G,-[I:staff -1] (3B,DG) | %110
!pp! [=DGB]2 AG [CEc]2 [CEA][B,EG] | x2[I:staff +1] (3^A,[I:staff -1][CE]G [Fe]2 z2 | %112
!mp! [G,B,EG]4 [A,CE]2 [A,DF]2 |!pp! [G,B,EG]4 x4 | (G4 F3 E) |1 (B4 G2) z2 :|2 (B4 G2) z2 || %117
[K:Eb][M:3/4]!f! EG | [B,EGB]2 [B,EGB]2 [EGB]2 | B2 AG FE | [B,EG]2 [CE]2 [DF]2 | %121
 [G,E]4!p! [G,E][B,F] | [EG]4 B,2 | [EG]2 [G,E]2 [B,F]2 | [EG]4 [B,EG]2 | [G,DB]4 [CEG]2 | %126
 [B,DG]4 D>D | [DGB]2 [B,DG]2 [CE]2 | [B,D]4 [DGB]2 |!<(! [DAB]3 [DAc] [DAB]2!<)! |!f! [B,GB]4 c2 | %131
 B2 G2 F2 | G2 E2 F2 | G2 C2 B,2 | [A,C]6 | [A,B,]6 | [G,B,E]2 [B,EG]2 [EGB]2 | [GBe]2 z2 z2 :| %138
[K:C][M:4/4] G2 | [EGc]4 [FA]4 | [EG]6 G2 | [CEc]4 A2 B2 | !fermata![B,DG]6 [A,C][B,D] | %143
 z [G,CE]z[A,CF] z [G,CE]z[A,C] | z [CE]z[F,B,D] z [G,C]z[B,D] | z [G,CE]z[F,B,D]z[E,A,C]z[A,E] | %146
 z [B,DG]z[A,D^F]z[DG]z[CEA] | z [DGB]z[B,EG]z[A,EA]z[A,D^F] | [B,DG]6 [CE]2 | [B,D]4 [CE]4 | %150
 [DF][CE][B,D][CE] [DF]3 [B,G] | [CE]3 [EG] [DF]3 [FA] | [EG][DF][CE][DF] [EG]2 [CG]2 | %153
 AGAB [Cc]2 [CE]2 | E4 D4 | C8 :|[K:G][M:4/4] (B2 B2 c3 B | A2 B2 G2) D2 | E2 F2 G2 A2 | B3 A A4 | %160
 B2 B2 c2 B2 | A2 B2 G2 E2 | G2 F2 E2 FG | F2 E2 D4 | d2 d2 e3 d | c2 B2 d2 c2 | c2 B2 A2 ^G2 | %167
 A8 | A2 A2 d3 c | B2 F2 A2 G2 | D2 E2 F2 G2 | B3 A G4 :|[K:F][M:9/8]!pp! (PB |: %173
 A)a(PB A)a(B PA)a !fermata!z | ([FA]A,[E^G] [FA]!<(!A,F DFA)!<)! | %175
!mf!!>(! ([Ac]D[GB] [GB]!>)!D[B,G] DFA) | ([FA]A,[E^G] [FA]A,[EG] DFB) | %177
 ([DA]B,[DG] [DG]B,G, ^C[I:staff +1]A,G,) | %178
[I:staff -1][K:bass] ([B,D]F,[A,^C] [B,D]F,[C=E][K:treble] [CF]C[DB]) | ([FA]CA, [EG]CG, CEG) | %180
 ([Ac]C!<(![^G=B] [Ac]CA FAc)!<)! | ([ce]F!>(![Bd] [Bd]FD F!>)!Bd) | ([Ac]C[^G=B] [Ac]FC DAd) | %183
 ([GB]D[B,G] DGB EGA) | [DF]A,[^CE] [DF]A,D- GG,G | A6- A z (PB | A).a(PB A).a(PB A)a z || %187
[K:D][M:6/8] z A{/^g}a z A{/g}a | z A{/^g}a z A{/g}a | z A{/^g}a z A{/g}a | %190
 A z z A/>B/A/>B/A/>B/ |1 dD z z2 TB :|2 dD z [dfd'] z z |][K:F][M:4/4] [Fc]2 | %194
 [Fd]3 [Fc] [FA]2 [FA]2 | [Fc]2 BA [EG]2 [EA]2 | F2 DE F2 B2 | [FA]2 [EG]4 [Ec]2 | %198
 [Fd]3 [Fc] [FA]2 [FA]2 | c2 BA [EG]2 [EA]2 | [DF]3 [^CE] D2 [=B,E]2 | [=B,D]2 C4 [Ec]2 | %202
 [Fd]3 [Ge] [Ff]2 [Fe]2 | [Fd]2 [_EA]2 [DB]2 [=EB]2 | [FB]3/2 [Fc]/ [Fd]3/2 [F=e]/ [Fd]2 [Fc]2 | %205
 [Fd]6 [Fd]2 | [EG]3 [FA] [FB]2 [Gd]2 | [Gc]2 [EA]2 [DF]2 C2 | [B,D]2 [A,C]2 [DF]2 [A,C]2 | %209
 [B,D]2 [CE]2 [CF]2 [DB]2 | [CA]2 GF G3 F | [CF]8 :| %212
V:4
 C3 x3 | x6 | x6 | x6 | x6 | x6 | x6 | x3 [EG]2 x | x3 =C3 | B,CA, x3 | x6 | x6 | x6 | x6 :| %14
[M:9/8] [_B,_E]3 x6 | x9 |: x9 | x9 | x9 | x9 | x9 | x3 D3 x3 | x6 [A,C][G,_B,][A,C] |1 x9 :|2 %24
 x6 |][K:Bb][M:4/4] x8 | x8 | x8 | d4- d4 | x8 | x8 | x8 | d8 | x8 | x8 | x8 | x6 (^C2 | D8) | x8 | %39
 x8 | [DB]2 x6 :|[K:G][M:2/4] x4 | x4 | B,2 C2 | x2 ED | x4 | x4 | B,2 C2 | x2 [F,C]2 | x4 | x4 | %51
 EB, ^C2 | D2 =C2 | x4 | x2 DC | x4 | x4 :|[K:A][M:2/4] x2 | x4 | x4 |: x2 ([CE][B,D]) | x4 | %62
 x2 ([CE][B,D]) | x4 | x4 | x4 | x4 | x4 | x4 | x4 | x4 | x4 | x4 | x4 | x4 | x4 | x4 | x4 | x4 | %79
 x4 | x4 | x4 |1 x4 :|2 D4 | x4 ||[K:C][M:3/4] x2 | x6 | x6 | x6 | x6 | x6 | x6 | x6 | x6 | x6 | %95
 x6 | x6 | G2 G3 F | x6 | x4 :|[K:E][M:4/4] x8 | !arpeggio![A,=C]8 | [B,E]6 x2 |: x8 | x8 | x8 | %106
 x4 D4 | [^EG]4 [=E=G]4 | x6 d2 | x8 | x8 | x8 | x8 | x8 | [^A,^C]4 [=A,=C]4 |1 [B,E]6 z2 :|2 %116
 [B,E]6 z2 ||[K:Eb][M:3/4] x2 | x6 | E4 x2 | x6 | x6 | x6 | x6 | x6 | x6 | x6 | x6 | x6 | x6 | %130
 x4 c2 | BEGB,DB, | G[I:staff +1]G,-[I:staff -1]E[I:staff +1]G,[I:staff -1]E=A, | %133
 E[I:staff +1]G,F,D,G,E, | x6 | x6 | x6 | x6 :|[K:C][M:4/4] x2 | x8 | x8 | x4[I:staff -1] [C^F]4 | %142
 x8 | x8 | x8 | x8 | x8 | x8 | x8 | x8 | x8 | x8 | x8 | C3 D x4 | C2 A,2 B,4 | x8 :| %156
[K:G][M:4/4] DAGF EGDG | EGFD G[I:staff +1]G,B,A,- | A,DCA, G,[I:staff -1]EDC | B,DG^C DED=C | %160
 B,DGF EGDG | EF^DF E[I:staff +1]B,G,B, |[I:staff -1] EB,^DB, E[I:staff +1]B,A,G, | %163
 A,[I:staff -1]DB,^C D[I:staff +1]A,F,[I:staff -1](D | D)AGF E^GBE- | EE=FD E^GAE | =FEFD B,FED | %167
 C=FED CB,CE- | EEFD- DG=FE | DECA, CA,EB, | %170
 DB,[I:staff +1]G,[I:staff -1]C- C[I:staff +1]A,B,[I:staff -1]D | GB,DC B,C B,2 :|[K:F][M:9/8] x |: %173
 x9 | x6 D3 | x6 D3 | x9 | x9 |[K:bass] x6[K:treble] x3 | x9 | x6 F3 | x9 | x9 | x9 | x6 (D3 | %185
 D)^C=B, C3 C x2 | x9 ||[K:D][M:6/8] x6 | x6 | x6 | x6 |1 x6 :|2 x6 |][K:F][M:4/4] x2 | x8 | %195
 x2 F2 z4 | D2 D2 F2 G2 | x8 | x8 | F2 F2 x4 | x8 | x2 C4 x2 | x8 | x8 | x8 | x8 | x8 | x8 | x8 | %209
 x8 | x2 C2 D2 E2 | x8 :| %212
V:5
 [C,G,]3 [G,,F,][A,,E,][G,,G,] | [C,G,]3 [E,G,]2 z | C,G,,C, D,G,,D, | C,G,,^C, D,G,,D, | %4
 D,G,,G,- !>!G,G,,G, | C,G,,G,- !>!G,G,,G, | C,G,,C, D,G,,D, | C,A,,A, E,3 | E,2 A,, D,2 D,, | %9
 G,,E,C, G,, z z |!pp! A,G,E, [F,A,][F,A,][F,A,] | C,,3- .C,,.G,.G, | G,3 [G,,F,]3 | %13
 E,2 (A, G,3) :|[M:9/8] ([C,G,]3 _E,3) [F,,E,]2 [F,,E,] | %15
 [_B,,F,]z[B,,F,] [B,,F,]z[B,,F,] [B,,F,]z[B,,F,] |: %16
 [_B,,F,]z[B,,F,] [B,,F,]z[B,,F,] [B,,F,]z[B,,F,] | %17
 [_B,,G,]z[B,,G,] [B,,G,]z[B,,G,] [B,,G,]z[=B,,G,] | [C,G,]z[C,G,] [C,G,]z[C,G,] [C,G,]z[C,G,] | %19
 [C,A,]z[C,G,] [C,A,]z[C,G,] [C,A,]z[_E,A,] | D,6 [_E,A,]z[E,A,] | D,6 C,3 | %22
 [_B,,G,]z[C,G,] [C,G,]3 [F,,F,]3 |1 [_B,,F,]z[B,,F,] [B,,F,]z[B,,F,] [B,,F,]z[B,,F,] :|2 %24
 [_B,,F,]6 |][K:Bb][M:4/4] G,,2 z D, G,2 z D, | ([B,,G,]2 [D,A,]2 [G,B,]2 [A,C]2 | %27
 [B,D]2 [G,B,]2 [D,A,]4) | ([B,D]2"^rit." [G,B,]2 [^F,A,]4) |"^a tempo" [G,,G,]3 D, G,3 D, | %30
 ([B,,G,]2 [D,A,]2 [G,B,]2 [A,C]2 | [B,D]2 [G,B,]2 [D,A,]4) |"^rit." ([B,D]2 [G,B,]2 [D,A,]4) | %33
"^a tempo" (B,4 =F,4 | G,4 D,3 C,) | B,,2 A,,2 G,,2 [E,,E,]2 | [D,,D,]2 z2 z2 (([E,G,]2 | %37
 ^F,4) C4 | [G,,B,]2) z D, G,2 z[I:staff -1] D | [G,G]2[I:staff +1] z2 z2[I:staff -1] [Dc]2 | %40
[I:staff +1] (G,2 z2) z4 :|[K:G][M:2/4] .G,,.D,/.D,/.F,.B,, | G,,D,/D,/F,B,, | G,,D,/D,/A,D, | %44
 G,,D,/D,/F,D, | .G,,.D,/.D,/.F,.D, | G,,D,/D,/ F,D, | G,,D,/D,/ A,D, | G,,B,,A,,D,, | (G,,F,E,D, | %50
 C,B,,) D,2 | B,,G,, E,2 | (D,2 D,,2) | G,,2 G,G,, | A,,B,, C,2 | D,E,C,D, | G,,B,, G,2 :| %57
[K:A][M:2/4] z2 | .A,, ([E,A,C]2 [E,A,]) | ([B,,A,]2 .[E,,G,]) z |: (A,,3 E,,) | A,,A, A,C | %62
 A,,3 E,, | .A,,.E,.C C | (DCA,G, | F,E,C,A,,) | (D,A,,)(F,A,,) | D,E,F,D, | (C,G,^E) z | %69
 [C^E-]2 E z | (C,G,^E) z | [C^E-]2 E z | (DCA,F,) | E,C,D,E, | D,B,, B,2 | [E,B,]3 C | (DCA,G, | %77
 E,C,D,A,,) | (D,2 B,,2) | [E,,E,]4 | (A,,E,.[A,C]) z | .A,, [E,A,C]2 [E,A,] |1 %82
 (([B,,A,]2 [E,,G,])) z :|2 (([A,,A,]2 [E,,G,]2)) | [A,,A,] z [A,E] z ||[K:C][M:3/4] z2 | %86
 (3([C,G,]CE G) z G,2 | (3([C,G,]CE ^F,) z G,2 | (3(G,CE G) z G,2 | (C,2 C2) z2 | %90
 (3([C,G,]CE G) z G,2 | (3(A,CE A) z F,2 | G,2 A,2 [F,A,]2 | ([E,^G,]2 E,,2) E,2 | (D,2 G,,2 D,2) | %95
 (E,2 G,,2 E,2) | ^D,2 ^D,,2 D,2 | E,2 E,3 D, | C,2 E, z G,2 | C,4 :| %100
[K:E][M:4/4] x2 (B,,2 [B,,E,G,]4) | !arpeggio![E,,D,]8 | [B,,G,]6 z2 |: %103
!pp! !arpeggio![E,,B,,E,]2 z2 !arpeggio![G,,B,,E,G,]2 z2 | %104
 !arpeggio![E,G,]2 z2 !arpeggio![E,G,]2 z2 | %105
 !arpeggio![E,A,]2 !arpeggio![F,A,B,]2 !arpeggio!B,2 !arpeggio![F,,C,F,]2 | %106
 !arpeggio![F,B,]6 [B,,F,B,]2 | (3B,,G,-B,- [G,B,]2 (3B,,=G,-^A,- [G,A,]2 | B,,6 [B,,F,B,]2 | %109
 x2 [D,G,B,]2 x2 [D,G,B,]2 | (3E,,E,G,[I:staff -1] (3DEG[I:staff +1] [A,,E,A,]2 [A,,F,A,]B,, | %111
 (3C,,C,F, x2 [E,G,E]2 z2 | (3(B,,,B,,E, (3G,B,[I:staff -1]E)[I:staff +1] [B,,,B,,]4 | %113
 (E,,B,,C,E,- A,B,[I:staff -1]CE) |[I:staff +1] z8 |1 [E,,B,,E,G,]6 z2 :|2 [E,,B,,G,]6 z2 || %117
[K:Eb][M:3/4] z2 | [E,,E,]2 [G,,G,]2 [B,,B,]2 | [E,G,]4 [E,G,B,]2 | [G,,G,]2 [C,G,]2 [B,,A,]2 | %121
 E,,B,,E,B,,E,B,, | E,,B,,E,B,,D,B,, | E,,B,,E,B,,D,B,, | E,,B,,E,B,,E,B,, | G,,D,G,D,G,E, | %126
 G,,D,G,D,^F,D, | G,,D,G,D,G,E, | G,,D,G,D,G,E, | G,,B,,F,B,,F,B,, | G,,B,,E,G, A,2 | %131
 G,2 E,2 B,,2 | G,,2 C,2 _C,2 | B,,2 A,,2 G,,2 | E,6 | D,6 | E,,2 B,,2 G,,2 | [E,,E,]2 z2 z2 :| %138
[K:C][M:4/4] G,2 | [C,C]4 [F,C]4 | [C,C]6 G,2 | A,4 D,4 | !fermata!G,6 E,D, | .C,2 .F,2 .C,2 .F,2 | %144
 G,2 G,,2 .C,.E,.G,.G,, | .C,2 .G,,2 .A,,2 .B,,2 | .D,2 .C,2 .B,,2 .C,2 | D,2 F,2 C,2 D,2 | %148
 .G,,.B,,.D,.^F, G,4 | G,G,, !>!G,2- G,G,, !>!G,2 | G,G,,G,G,, G,G,,G,G,, | %151
 G,G,, !>!G,3 .G,, G,2- | G,G,,G,G,, G,2 E,2 | F,3 F, E,2 [A,,^F,]2 | [G,,G,]4 [G,,F,]4 | %155
 [C,E,]8 :|[K:G][M:4/4] G,,4 G,4 | C,2 D,2 B,,2 G,,2 | C,2 A,,2 B,,2 F,,2 | G,,2 E,2 F,2 D,2 | %160
 G,,4 G,4 | C,2 D,2 B,,2 G,,2 | C,2 A,,2 B,,2 F,,2 | G,,2 E,2 F,2 D,2 | B,,3 A,, ^G,,2 ^G,2 | %165
 A,2 D,2 B,,2 A,,2 | D,4 E,4 | A,,4 A,2 G,2 | G,2 C,2 B,,2 C,2 | D,2 ^D,2 E,4 | %170
 B,,2 C,2 A,,2 G,,2 | D,2 D,,2 z E, E,2 :|[K:F][M:9/8][K:treble] ([DE] |: %173
 [^CG])z[DE] [CG]z[DE] [CG] z !fermata!z | z2 z (F3 d3) | z2 z (G3 e3) | %176
[K:bass] z2 z ((A,,3 F,3)) | z2 z E,6 | z2 z F,2 G, [A,,A,]2 [G,,G,] | C,6 C,3 | z2 z (C,3 A,3) | %181
 z2 z (D,3 B,3) | z2 z F,3 [^F,,^F,]3 | [G,,G,]6 ^C,3 | D,6- D,3 | %185
 [A,,E,]6- [A,,E,] z[K:treble] [DE] | [^CG]z[EF] [CG]z[EF] [CG] z z || %187
[K:D][M:6/8] ([CG]2 A,) ([DF]2 A,) | ([CG]2 A,) ([DF]2 A,) | ([CG]2 A,) ([DF]2 A,) | %190
 [CG] z z[K:bass] .[A,CG].[A,CG].[A,CG] |1 [DF]D, z z2[K:treble] [DE] :|2 %192
 [bd']B z[K:treble] [DA] z z |][K:F][M:4/4] [df]2 | [dg]3 [df] [da]2 [da]2 | a2 b2 c'2 f2 | %196
 f2 f2 f2 b2 | [Aa]2 [Aa]4 [Ag]2 | [df]3 [df] [da]2 [da]2 | a2 b2 c'2 f2 | f3 e [ce]2 e2 | %201
 [Bd]2 [Ac]4 a2 | [gb]3 [ga] [fa]2 [fa]2 | g2 [^da]2 [eg]2 [ea]2 | %204
 [db]3/2 [da]/ [dg]3/2 [da]/ [df]2 [df]2 | f6 g2 | [ga]3 [fa] [eb]2 [dg]2 | %207
 [cea]2 [Aa]2 [Bf]2 [Fd]2 | [Gd]2 d2 [Gd]2 d2 | [Gd]2 [Ge]2 [Fd]2 [Ed]2 | d2 ef g3 g | [df]8 :| %212
V:6
 x6 | x6 | x6 | x2 G, G,3 | x6 | x6 | x6 | x6 | x6 | x6 | [C,,G,,]3 F,,3 | [E,G,] x5 | x6 | %13
 C,,2- (^F,, [C,,G,,]3) :|[M:9/8] z9 | x9 |: x9 | x9 | x9 | x9 | x9 | x9 | x9 |1 x9 :|2 x6 |] %25
[K:Bb][M:4/4] x8 | x8 | x8 | D,4 x4 | x8 | x8 | x8 | D,8 | x8 | x8 | x8 | x8 | D,8 | x8 | x8 | %40
 x8 :|[K:G][M:2/4] x4 | x4 | x4 | x4 | x4 | x4 | x4 | x4 | x4 | x4 | x4 | x4 | x4 | x4 | x4 | x4 :| %57
[K:A][M:2/4] x2 | x4 | x4 |: x4 | x4 | x4 | x4 | x4 | x4 | x4 | x4 | x4 | (^^F,G,C) x | x4 | %71
 (^^F,G,C) x | x4 | x4 | x4 | x4 | x4 | x4 | x4 | x4 | x4 | x4 |1 x4 :|2 x4 | x4 || %85
[K:C][M:3/4] x2 | x6 | x6 | x6 | x6 | x6 | x6 | x6 | x6 | x6 | x6 | x6 | x6 | x6 | x4 :| %100
[K:E][M:4/4] x6 B,2 | x8 | E,,6 x2 |: x8 | !arpeggio![C,,G,,C,]2 z2 !arpeggio![B,,C,]2 z2 | %105
 !arpeggio!A,,2 !arpeggio![G,,B,,]2 !arpeggio![G,,E,]2 x2 | (B,,,F,,B,, D,F,B,) x2 | B,,4 B,,4 | %108
 B,,F,-B,-[I:staff -1] DFB x2 |[I:staff +1] G,,4 G,,4 | E,,4 x4 | x8 | x8 | x2 B,,2- [B,,E,G,]4 | %114
 x8 |1 x8 :|2 x8 ||[K:Eb][M:3/4] x2 | x6 | x6 | x6 | x6 | x6 | x6 | x6 | x6 | x6 | x6 | x6 | x6 | %130
 x6 | x6 | x6 | x6 | F,,2 F,2 z2 | B,,,2 B,,2 z2 | x6 | x6 :|[K:C][M:4/4] x2 | x8 | x8 | x8 | x8 | %143
 x8 | x8 | x8 | x8 | x8 | x8 | x8 | x8 | x8 | x8 | x8 | x8 | x8 :|[K:G][M:4/4] x8 | x8 | x8 | x8 | %160
 x8 | x8 | x8 | x8 | x8 | x8 | x8 | x8 | x8 | x8 | x8 | x8 :|[K:F][M:9/8][K:treble] x |: x9 | %174
 B,6- B,3 | B,6- B,3 |[K:bass] D,,6- D,,3 | (E,,6 A,,3) | B,,6 x3 | x9 | F,,6- F,,3 | F,,6- F,,3 | %182
 F,,6 x3 | x9 | D,6 D,3 | x8[K:treble] x | x9 ||[K:D][M:6/8] x6 | x6 | x6 | x3[K:bass] x3 |1 %191
 x5[K:treble] x :|2 x3[K:treble] x3 |][K:F][M:4/4] x2 | x8 | F2 G2 A2 ^A2 | B2 dc B2 G2 | x8 | x8 | %199
 F2 G2 A2 B2 | B3 B A2 E2 | x6 c'2 | x8 | x8 | x8 | f6 g2 | x8 | x8 | x2 d2 x4 | x8 | A2 A2 A3 A | %211
 x8 :| %212
V:7
 x6 | x6 | x6 | x6 | x6 | x6 | x6 | x6 | x6 | x6 | x6 | x6 | x6 | x6 :|[M:9/8] x9 | x9 |: x9 | x9 | %18
 x9 | x9 | x9 | x9 | x9 |1 x9 :|2 x6 |][K:Bb][M:4/4] x8 | x8 | x8 | x8 | x8 | x8 | x8 | x8 | x8 | %34
 x8 | x8 | x8 | x8 | x8 | x8 | x8 :|[K:G][M:2/4] x4 | x4 | x4 | x4 | x4 | x4 | x4 | x4 | x4 | x4 | %51
 x4 | x4 | x4 | x4 | x4 | x4 :|[K:A][M:2/4] x2 | x4 | x4 |: x4 | x4 | x4 | x4 | x4 | x4 | x4 | x4 | %68
 x4 | x4 | x4 | x4 | x4 | x4 | x4 | x4 | x4 | x4 | x4 | x4 | x4 | x4 |1 x4 :|2 x4 | x4 || %85
[K:C][M:3/4] x2 | x6 | x6 | x6 | x6 | x6 | x6 | x6 | x6 | x6 | x6 | x6 | x6 | x6 | x4 :| %100
[K:E][M:4/4] E,,8 | x8 | x8 |: x8 | x8 | x8 | x8 | x8 | x3 [F,B,]4 x | x8 | x8 | x8 | x8 | E,,8 | %114
 x8 |1 x8 :|2 x8 ||[K:Eb][M:3/4] x2 | x6 | x6 | x6 | x6 | x6 | x6 | x6 | x6 | x6 | x6 | x6 | x6 | %130
 x6 | x6 | x6 | x6 | x6 | x6 | x6 | x6 :|[K:C][M:4/4] x2 | x8 | x8 | x8 | x8 | x8 | x8 | x8 | x8 | %147
 x8 | x8 | x8 | x8 | x8 | x8 | x8 | x8 | x8 :|[K:G][M:4/4] x8 | x8 | x8 | x8 | x8 | x8 | x8 | x8 | %164
 x8 | x8 | x8 | x8 | x8 | x8 | x8 | x8 :|[K:F][M:9/8][K:treble] x |: x9 | x9 | x9 |[K:bass] x9 | %177
 x9 | x9 | x9 | x9 | x9 | x9 | x9 | x9 | x8[K:treble] x | x9 ||[K:D][M:6/8] x6 | x6 | x6 | %190
 x3[K:bass] x3 |1 x5[K:treble] x :|2 x3[K:treble] x3 |][K:F][M:4/4] x2 | x8 | x8 | x8 | x8 | x8 | %199
 x8 | x8 | x8 | x8 | x8 | x8 | x8 | x8 | x8 | x8 | x8 | x8 | x8 :| %212

